Papirus/22x22/mimetypes/text-x-csrc.svg

<svg width="22" height="22" version="1" xmlns="http://www.w3.org/2000/svg">
 <path d="m4 1.5c-0.554 0-1 0.446-1 1v18c0 0.554 0.446 1 1 1h14c0.554 0 1-0.446 1-1v-13l-5.5-0.5-0.5-5.5z" style="opacity:.2"/>
 <path d="m4 1c-0.554 0-1 0.446-1 1v18c0 0.554 0.446 1 1 1h14c0.554 0 1-0.446 1-1v-13l-5.5-0.5-0.5-5.5z" style="fill:#4094e1"/>
 <path d="m4 1c-0.554 0-1 0.446-1 1v0.5c0-0.554 0.446-1 1-1h9l5.5 5.5h0.5l-6-6z" style="fill:#ffffff;opacity:.1"/>
 <path d="m13 1.5v5c0 0.5523 0.44772 1 1 1h5z" style="opacity:.2"/>
 <path d="m13 1v5c0 0.5523 0.44772 1 1 1h5z" style="fill:#5faaf2"/>
 <path d="m13.249639 12v-1.178571s0-1.071429-2.25-1.071429c-2.2500001 0-2.2499991 2.142857-2.2500001 3.75 0 1.607143 0 3.75 2.2500001 3.75 2.25 0 2.25-1.071429 2.25-1.071429v-1.178571" style="fill:none;stroke-width:1.5;stroke:#ffffff"/>
</svg>

<svg xmlns="http://www.w3.org/2000/svg" width="22" height="22" version="1">
 <path style="opacity:0.2" d="m 4,1.5 c -0.554,0 -1,0.446 -1,1 v 18 c 0,0.554 0.446,1 1,1 h 14 c 0.554,0 1,-0.446 1,-1 V 7.5 L 13.5,7 13,1.5 Z"/>
 <path style="fill:#e4e4e4" d="M 4,1 C 3.446,1 3,1.446 3,2 v 18 c 0,0.554 0.446,1 1,1 h 14 c 0.554,0 1,-0.446 1,-1 V 7 L 13.5,6.5 13,1 Z"/>
 <path style="opacity:0.2;fill:#ffffff" d="M 4,1 C 3.446,1 3,1.446 3,2 v 0.5 c 0,-0.554 0.446,-1 1,-1 h 9 L 18.5,7 H 19 L 13,1 Z"/>
 <path style="opacity:0.2" d="m 13,1.5 v 5 c 0,0.5523 0.44772,1 1,1 h 5 z"/>
 <path style="fill:#fafafa" d="m 13,1 v 5 c 0,0.5523 0.44772,1 1,1 h 5 z"/>
 <path style="fill:none;stroke:#0180cd;stroke-width:2;stroke-linecap:square" d="m 13,16 c 0,0 -2e-6,1 -2,1 -1.999998,0 -2,-2.0902 -2,-3.5 10e-7,-1.4098 0,-3.5 2,-3.5 2,0 2,1 2,1"/>
</svg>
